X: 3
T: The Cuil Aodha
R: polka
M: 2/4
L: 1/8
K: Amaj
Ac EF|A>A Af|ec BA|e/f/e/c/ Bc/B/|Ac EF|A>A Af|ec BA/B/|1 cA AE:|2 cA A|]B|ce ce|a2 af|ec BA|e/f/e/c/ BA|[1 ce ce|a2 af|ec BA/B/|cA A:|[2 Ac EF|A>A Af|ec BA/B/|cA A|]


Tune 1535	Setting 1535

